src/images/whatsapp-icon.svg

<svg fill="none" height="48" viewBox="0 0 48 48" width="48" xmlns="http://www.w3.org/2000/svg"><path clip-rule="evenodd" d="m41.0066 6.97557c-4.5124-4.4959-10.5131-6.9729199-16.9064-6.97557-13.1732 0-23.894662 10.6693-23.899821 23.7835-.001831 4.1922 1.098751 8.2839 3.190251 11.8912l-3.39063 12.3253 12.6696-3.3077c3.4908 1.895 7.421 2.8938 11.4211 2.8951h.0098c13.1718 0 23.8942-10.6705 23.8995-23.785.0025-6.3554-2.4811-12.3313-6.9934-16.827zm-16.9061 36.59493h-.0081c-3.5644-.0013-7.0605-.9544-10.1105-2.7556l-.7253-.4285-7.51835 1.9628 2.00678-7.2953-.47232-.748c-1.98847-3.1475-3.03863-6.7854-3.03713-10.5209.00433-10.9 8.91552-19.76794 19.87272-19.76794 5.3058.00182 10.2933 2.06095 14.0439 5.79776 3.7504 3.73668 5.8146 8.70378 5.8126 13.98608-.0045 10.9007-8.9155 19.7695-19.8643 19.7695zm10.896-14.8063c-.5971-.2974-3.5331-1.735-4.0804-1.9336-.5474-.1982-.9455-.2973-1.3436.2975-.3981.595-1.5425 1.9338-1.891 2.3305-.3483.3965-.6966.4463-1.2936.1487-.5971-.2975-2.5214-.9251-4.8023-2.9499-1.7752-1.576-2.9737-3.5222-3.322-4.1171-.3484-.595-.0371-.9166.2618-1.2129.2686-.2664.5971-.6942.8957-1.0412s.3981-.5951.5971-.9915c.1991-.3966.0995-.7436-.0497-1.0411-.1493-.2975-1.3436-3.2229-1.8412-4.4129-.4848-1.1588-.9771-1.0018-1.3436-1.0202-.348-.0172-.7464-.0208-1.1445-.0208s-1.045.1487-1.5924.7437c-.5474.5951-2.09 2.0329-2.09 4.958 0 2.925 2.1398 5.7514 2.4383 6.1479.2986.3968 4.211 6.3995 10.2014 8.9739 1.4248.6123 2.5372.978 3.4042 1.2518 1.4307.4525 2.7325.3886 3.7615.2356 1.1473-.1706 3.5331-1.4376 4.0308-2.8259.4975-1.3885.4975-2.5784.3482-2.8261-.1493-.248-.5474-.3967-1.1445-.6942z" fill="#fff" fill-rule="evenodd"/></svg>

<svg width="48" height="48" viewBox="0 0 48 48" fill="none" xmlns="http://www.w3.org/2000/svg">
<path fill-rule="evenodd" clip-rule="evenodd" d="M41.0066 6.97557C36.4942 2.47967 30.4935 0.0026501 24.1002 0C10.927 0 0.205538 10.6693 0.200379 23.7835C0.198548 27.9757 1.29913 32.0674 3.39063 35.6747L0 48L12.6696 44.6923C16.1604 46.5873 20.0906 47.5861 24.0907 47.5874H24.1005C24.1005 47.5874 24.0999 47.5874 24.1005 47.5874C37.2723 47.5874 47.9947 36.9169 48 23.8024C48.0025 17.447 45.5189 11.4711 41.0066 6.9754V6.97557ZM24.1005 43.5705H24.0924C20.528 43.5692 17.0319 42.6161 13.9819 40.8149L13.2566 40.3864L5.73825 42.3492L7.74503 35.0539L7.27271 34.3059C5.28424 31.1584 4.23408 27.5205 4.23558 23.785C4.23991 12.885 13.1511 4.01706 24.1083 4.01706C29.4141 4.01888 34.4016 6.07801 38.1522 9.81482C41.9026 13.5515 43.9668 18.5186 43.9648 23.8009C43.9603 34.7016 35.0493 43.5704 24.1005 43.5704V43.5705ZM34.9965 28.7642C34.3994 28.4668 31.4634 27.0292 30.9161 26.8306C30.3687 26.6324 29.9706 26.5333 29.5725 27.1281C29.1744 27.7231 28.03 29.0619 27.6815 29.4586C27.3332 29.8551 26.9849 29.9049 26.3879 29.6073C25.7908 29.3098 23.8665 28.6822 21.5856 26.6574C19.8104 25.0814 18.6119 23.1352 18.2636 22.5403C17.9152 21.9453 18.2265 21.6237 18.5254 21.3274C18.794 21.061 19.1225 20.6332 19.4211 20.2862C19.7197 19.9392 19.8192 19.6911 20.0182 19.2947C20.2173 18.8981 20.1177 18.5511 19.9685 18.2536C19.8192 17.9561 18.6249 15.0307 18.1273 13.8407C17.6425 12.6819 17.1502 12.8389 16.7837 12.8205C16.4357 12.8033 16.0373 12.7997 15.6392 12.7997C15.2411 12.7997 14.5942 12.9484 14.0468 13.5434C13.4994 14.1385 11.9568 15.5763 11.9568 18.5014C11.9568 21.4264 14.0966 24.2528 14.3951 24.6493C14.6937 25.0461 18.6061 31.0488 24.5965 33.6232C26.0213 34.2355 27.1337 34.6012 28.0007 34.875C29.4314 35.3275 30.7332 35.2636 31.7622 35.1106C32.9095 34.94 35.2953 33.673 35.793 32.2847C36.2905 30.8962 36.2905 29.7063 36.1412 29.4586C35.9919 29.2106 35.5938 29.0619 34.9967 28.7644L34.9965 28.7642Z" fill="white"/>
</svg>
